resources/svg/major-column1.svg

<svg xmlns="http://www.w3.org/2000/svg" viewBox="0 0 20 20" fill="currentColor"><path fill-rule="evenodd" d="M16 2H4V18H16V2ZM4 0C2.89543 0 2 0.895431 2 2V18C2 19.1046 2.89543 20 4 20H16C17.1046 20 18 19.1046 18 18V2C18 0.895431 17.1046 0 16 0H4Z" fill="#5C5F62"/></svg>

<svg xmlns="http://www.w3.org/2000/svg" viewBox="0 0 20 20" fill="currentColor"><path fill-rule="evenodd" d="M16 2h-12v16h12v-16Zm-12-2a2 2 0 0 0-2 2v16a2 2 0 0 0 2 2h12a2 2 0 0 0 2-2v-16a2 2 0 0 0-2-2h-12Z"/></svg>
